images_sukapura_svg/cmd/lc_insertpagecountfield.svg

<svg viewBox="0 0 24 24" xmlns="http://www.w3.org/2000/svg" xmlns:xlink="http://www.w3.org/1999/xlink"><linearGradient id="a" gradientTransform="translate(75 -7)" gradientUnits="userSpaceOnUse" x1="14" x2="13.79661" y1="22" y2="2.135593"><stop offset="0" stop-color="#0040dd"/><stop offset="1" stop-color="#0a84ff"/></linearGradient><linearGradient id="b" gradientUnits="userSpaceOnUse" x1="15.164003" x2="15" xlink:href="#a" y1="22.965097" y2="12"/><linearGradient id="c" gradientUnits="userSpaceOnUse" x1="18.20339" x2="18.322035" xlink:href="#a" y1="22.88983" y2="12.008474"/><linearGradient id="d" gradientUnits="userSpaceOnUse" x1="6.59322" x2="7.016949" xlink:href="#a" y1="12.093221" y2="1.313559"/><linearGradient id="e" gradientUnits="userSpaceOnUse" x1="15" x2="17.000001" y1="7" y2="4.999999"><stop offset="0" stop-color="#fff"/><stop offset=".77967989" stop-color="#f1f1f1"/><stop offset="1" stop-color="#d5d5d5"/></linearGradient><radialGradient id="f" cx="17" cy="6.555555" gradientTransform="matrix(1.4285714 -.00000006 .00000006 1.4285714 -7.285714 -4.365078)" gradientUnits="userSpaceOnUse" r="7"><stop offset="0" stop-color="#d7d7d7"/><stop offset=".29999998" stop-color="#f7f7f7"/><stop offset="1" stop-color="#fff"/></radialGradient><path d="m5 3v18h14v-14.2705905l-4-3.7294095z" fill="url(#f)"/><path d="m5 2c-.554 0-1 .446-1 1v18c0 .554.446 1 1 1h14c.554 0 1-.446 1-1v-10.109375-3.6412209-.2079239c0-.4506799.09887-.4265951-.604637-1.0675892l-3.307389-3.2370335c-.709525-.7368575-.711223-.7368575-1.094804-.7368575h-.331557-.661613zm0 1h9v4c0 .554.446 1 1 1h4v13h-14z" fill="#98989d"/><path d="m15 7h4l-4-4z" fill="#fff" fill-rule="evenodd"/><path d="m15 3 4 4h-4z" fill="url(#e)"/><path d="m5 2c-.554 0-1 .446-1 1v10c.3639693 0 .7034806-.107739 1-.283203.5920571-.350348 1-.990063 1-1.716797h1c0 1.090703.9092972 2 2 2 1.090703 0 2-.909297 2-2 1.090703 0 2-.909297 2-2 0-1.0907028-.909297-2-2-2v-1c1.090703 0 2-.9092972 2-2 0-.3639693-.107739-.7034806-.283203-1l-.826966-1zm1 4h1v1h-1zm9 5c-1.090703 0-2 .909297-2 2-1.090703 0-2 .909297-2 2s.909297 2 2 2v1c-1.090703 0-2 .909297-2 2 0 .363969.107739.703481.283203 1 .350348.592057.990063 1 1.716797 1h6c.554 0 1-.446 1-1v-10c-.363969 0-.703481.107739-1 .283203-.592057.350348-1 .990063-1 1.716797h-1c0-1.090703-.909297-2-2-2zm2 6h1v1h-1z" fill="#fff" fill-opacity=".784314"/><path d="m15 12c-.554 0-1 .446-1 1v1h-1c-.554 0-1 .446-1 1s.446 1 1 1h1v3h-1c-.554 0-1 .446-1 1s.446 1 1 1h1v1c0 .554.446 1 1 1s1-.446 1-1v-1h3v1c0 .554.446 1 1 1s1-.446 1-1v-1h1c.554 0 1-.446 1-1s-.446-1-1-1h-1v-3h1c.554 0 1-.446 1-1s-.446-1-1-1h-1v-1c0-.554-.446-1-1-1s-1 .446-1 1v1h-3v-1c0-.554-.446-1-1-1zm1 4h3v3h-3z" fill="url(#b)" opacity="0"/><path d="m15 12c-.554 0-1 .446-1 1v1h-1c-.554 0-1 .446-1 1s.446 1 1 1h1v3h-1c-.554 0-1 .446-1 1s.446 1 1 1h1v1c0 .554.446 1 1 1s1-.446 1-1v-1h3v1c0 .554.446 1 1 1s1-.446 1-1v-1h1c.554 0 1-.446 1-1s-.446-1-1-1h-1v-3h1c.554 0 1-.446 1-1s-.446-1-1-1h-1v-1c0-.554-.446-1-1-1s-1 .446-1 1v1h-3v-1c0-.554-.446-1-1-1zm1 4h3v3h-3z" fill="url(#c)"/><path d="m4 1c-.554 0-1 .446-1 1v1h-1c-.554 0-1 .446-1 1s.446 1 1 1h1v3h-1c-.554 0-1 .446-1 1s.446 1 1 1h1v1c0 .554.446 1 1 1s1-.446 1-1v-1h3v1c0 .554.446 1 1 1s1-.446 1-1v-1h1c.554 0 1-.446 1-1s-.446-1-1-1h-1v-3h1c.554 0 1-.446 1-1s-.446-1-1-1h-1v-1c0-.554-.446-1-1-1s-1 .446-1 1v1h-3v-1c0-.554-.446-1-1-1zm1 4h3v3h-3z" fill="url(#d)"/></svg>

<?xml version="1.0" encoding="UTF-8" standalone="no"?>
<svg
   xmlns:dc="http://purl.org/dc/elements/1.1/"
   xmlns:cc="http://creativecommons.org/ns#"
   xmlns:rdf="http://www.w3.org/1999/02/22-rdf-syntax-ns#"
   xmlns:svg="http://www.w3.org/2000/svg"
   xmlns="http://www.w3.org/2000/svg"
   xmlns:xlink="http://www.w3.org/1999/xlink"
   xmlns:sodipodi="http://sodipodi.sourceforge.net/DTD/sodipodi-0.dtd"
   xmlns:inkscape="http://www.inkscape.org/namespaces/inkscape"
   viewBox="0 0 24 24"
   version="1.1"
   id="svg24"
   sodipodi:docname="lc_insertpagecountfield.svg"
   inkscape:version="0.92.3 (unknown)">
  <metadata
     id="metadata30">
    <rdf:RDF>
      <cc:Work
         rdf:about="">
        <dc:format>image/svg+xml</dc:format>
        <dc:type
           rdf:resource="http://purl.org/dc/dcmitype/StillImage" />
        <dc:title></dc:title>
      </cc:Work>
    </rdf:RDF>
  </metadata>
  <defs
     id="defs28">
    <linearGradient
       gradientTransform="translate(75,-7)"
       id="a-367"
       gradientUnits="userSpaceOnUse"
       x1="14"
       x2="13.79661"
       y1="22"
       y2="2.1355929">
      <stop
         offset="0"
         stop-color="#0040dd"
         id="stop2206" />
      <stop
         offset="1"
         stop-color="#0a84ff"
         id="stop2208" />
    </linearGradient>
    <linearGradient
       inkscape:collect="always"
       xlink:href="#a-367"
       id="linearGradient1533"
       x1="15.164003"
       y1="22.965097"
       x2="15"
       y2="12"
       gradientUnits="userSpaceOnUse" />
    <linearGradient
       inkscape:collect="always"
       xlink:href="#a-367"
       id="linearGradient1575"
       x1="18.20339"
       y1="22.88983"
       x2="18.322035"
       y2="12.008474"
       gradientUnits="userSpaceOnUse" />
    <linearGradient
       inkscape:collect="always"
       xlink:href="#a-367"
       id="linearGradient1567"
       x1="6.5932202"
       y1="12.093221"
       x2="7.0169492"
       y2="1.3135593"
       gradientUnits="userSpaceOnUse" />
  </defs>
  <sodipodi:namedview
     pagecolor="#ffffff"
     bordercolor="#666666"
     borderopacity="1"
     objecttolerance="10"
     gridtolerance="10"
     guidetolerance="10"
     inkscape:pageopacity="0"
     inkscape:pageshadow="2"
     inkscape:window-width="1366"
     inkscape:window-height="706"
     id="namedview26"
     showgrid="false"
     inkscape:zoom="9.8333333"
     inkscape:cx="-7.4070888"
     inkscape:cy="1.7873643"
     inkscape:window-x="0"
     inkscape:window-y="0"
     inkscape:window-maximized="1"
     inkscape:current-layer="svg24" />
  <linearGradient
     id="a"
     gradientUnits="userSpaceOnUse"
     x1="15"
     x2="17.0000008"
     y1="7"
     y2="4.9999992">
    <stop
       offset="0"
       stop-color="#fff"
       id="stop2" />
    <stop
       offset=".77967989"
       stop-color="#f1f1f1"
       id="stop4" />
    <stop
       offset="1"
       stop-color="#d5d5d5"
       id="stop6" />
  </linearGradient>
  <radialGradient
     id="b"
     cx="17"
     cy="6.555555"
     gradientTransform="matrix(1.4285714 -.00000006 .00000006 1.4285714 -7.285714 -4.365078)"
     gradientUnits="userSpaceOnUse"
     r="7">
    <stop
       offset="0"
       stop-color="#d7d7d7"
       id="stop9" />
    <stop
       offset=".29999998"
       stop-color="#f7f7f7"
       id="stop11" />
    <stop
       offset="1"
       stop-color="#fff"
       id="stop13" />
  </radialGradient>
  <g
     id="g844">
    <path
       id="path16"
       fill="url(#b)"
       d="m5 3v18h14v-14.2705905l-4-3.7294095z" />
    <path
       id="path18"
       fill="#98989d"
       d="m5 2c-.554 0-1 .446-1 1v18c0 .554.446 1 1 1h14c.554 0 1-.446 1-1v-10.109375-3.6412209-.2079239c0-.4506799.09887-.4265951-.604637-1.0675892l-3.307389-3.2370335c-.709525-.7368575-.711223-.7368575-1.094804-.7368575h-.331557-.661613zm0 1h9v4c0 .554.446 1 1 1h4v13h-14z" />
    <path
       id="path20"
       fill-rule="evenodd"
       fill="#fff"
       d="m15 7h4l-4-4z" />
    <path
       id="path22"
       fill="url(#a)"
       d="m15 3 4 4h-4z" />
  </g>
  <path
     style="fill:#ffffff;fill-opacity:0.78431374"
     d="M 5,2 C 4.446,2 4,2.446 4,3 V 13 C 4.3639693,13 4.7034806,12.892261 5,12.716797 5.5920571,12.366449 6,11.726734 6,11 h 1 c 0,1.090703 0.9092972,2 2,2 1.090703,0 2,-0.909297 2,-2 1.090703,0 2,-0.909297 2,-2 C 13,7.9092972 12.090703,7 11,7 V 6 C 12.090703,6 13,5.0907028 13,4 13,3.6360307 12.892261,3.2965194 12.716797,3 L 11.889831,2 Z M 6,6 H 7 V 7 H 6 Z m 9,5 c -1.090703,0 -2,0.909297 -2,2 -1.090703,0 -2,0.909297 -2,2 0,1.090703 0.909297,2 2,2 v 1 c -1.090703,0 -2,0.909297 -2,2 0,0.363969 0.107739,0.703481 0.283203,1 0.350348,0.592057 0.990063,1 1.716797,1 h 6 c 0.554,0 1,-0.446 1,-1 V 11 c -0.363969,0 -0.703481,0.107739 -1,0.283203 C 18.407943,11.633551 18,12.273266 18,13 h -1 c 0,-1.090703 -0.909297,-2 -2,-2 z m 2,6 h 1 v 1 h -1 z"
     id="path1541"
     inkscape:connector-curvature="0"
     sodipodi:nodetypes="ssccccscsccsccscccccscsccssssscsccsccccc" />
  <path
     inkscape:connector-curvature="0"
     style="fill:url(#linearGradient1533);fill-opacity:1;opacity:0"
     d="m 15,12 c -0.554,0 -1,0.446 -1,1 v 1 h -1 c -0.554,0 -1,0.446 -1,1 0,0.554 0.446,1 1,1 h 1 v 3 h -1 c -0.554,0 -1,0.446 -1,1 0,0.554 0.446,1 1,1 h 1 v 1 c 0,0.554 0.446,1 1,1 0.554,0 1,-0.446 1,-1 v -1 h 3 v 1 c 0,0.554 0.446,1 1,1 0.554,0 1,-0.446 1,-1 v -1 h 1 c 0.554,0 1,-0.446 1,-1 0,-0.554 -0.446,-1 -1,-1 h -1 v -3 h 1 c 0.554,0 1,-0.446 1,-1 0,-0.554 -0.446,-1 -1,-1 h -1 v -1 c 0,-0.554 -0.446,-1 -1,-1 -0.554,0 -1,0.446 -1,1 v 1 h -3 v -1 c 0,-0.554 -0.446,-1 -1,-1 z m 1,4 h 3 v 3 h -3 z"
     id="path8" />
  <path
     inkscape:connector-curvature="0"
     style="fill:url(#linearGradient1575);fill-opacity:1"
     d="m 15,12 c -0.554,0 -1,0.446 -1,1 v 1 h -1 c -0.554,0 -1,0.446 -1,1 0,0.554 0.446,1 1,1 h 1 v 3 h -1 c -0.554,0 -1,0.446 -1,1 0,0.554 0.446,1 1,1 h 1 v 1 c 0,0.554 0.446,1 1,1 0.554,0 1,-0.446 1,-1 v -1 h 3 v 1 c 0,0.554 0.446,1 1,1 0.554,0 1,-0.446 1,-1 v -1 h 1 c 0.554,0 1,-0.446 1,-1 0,-0.554 -0.446,-1 -1,-1 h -1 v -3 h 1 c 0.554,0 1,-0.446 1,-1 0,-0.554 -0.446,-1 -1,-1 h -1 v -1 c 0,-0.554 -0.446,-1 -1,-1 -0.554,0 -1,0.446 -1,1 v 1 h -3 v -1 c 0,-0.554 -0.446,-1 -1,-1 z m 1,4 h 3 v 3 h -3 z"
     id="path8-6" />
  <path
     style="fill:url(#linearGradient1567);fill-opacity:1"
     inkscape:connector-curvature="0"
     id="path10"
     d="M 4,1 C 3.446,1 3,1.446 3,2 V 3 H 2 C 1.446,3 1,3.446 1,4 1,4.554 1.446,5 2,5 H 3 V 8 H 2 C 1.446,8 1,8.446 1,9 c 0,0.554 0.446,1 1,1 h 1 v 1 c 0,0.554 0.446,1 1,1 0.554,0 1,-0.446 1,-1 v -1 h 3 v 1 c 0,0.554 0.446,1 1,1 0.554,0 1,-0.446 1,-1 v -1 h 1 C 11.554,10 12,9.554 12,9 12,8.446 11.554,8 11,8 H 10 V 5 h 1 C 11.554,5 12,4.554 12,4 12,3.446 11.554,3 11,3 H 10 V 2 C 10,1.446 9.554,1 9,1 8.446,1 8,1.446 8,2 V 3 H 5 V 2 C 5,1.446 4.554,1 4,1 Z M 5,5 H 8 V 8 H 5 Z" />
</svg>
